X:1
T:There’s a Work for Each of Us
T:There’s a Work for Each of Us
T:James McGranahan
T:A.A.A., 1878
T:Public Domain Courtesy of the Cyber Hymnal™
C:James McGranahan
Z:Public Domain
Z:Courtesy of the Cyber Hymnal™
%%score ( 1 2 ) 3
L:1/8
Q:1/4=95
M:6/8
K:Eb
V:1 treble 
V:2 treble 
V:3 bass 
V:1
 [GB] | [GB]>[Ac][GB] [EG][FA][GB] | [Ac] [GB]4 [GB]/[GB]/ | [GB][FA][EG] [DF][EG][FA] | %4
w: 1.~Our|mas- ter has tak- en His|jour- ney To a|coun- try that’s fa- r a-|
w: 2.~In|this “lit- tle while,” doth it|mat- ter, As we|work, and we watch, and we|
w: 3.~There’s|on- ly one thing should conc-|ern us, T- o|find just the task that is|
w: 4.~Our|mas- ter is com- ing most|sure- ly, T- o|reck- on with ev- er- y|
 [EG]3- [EG]2 [GB]/[GB]/ | [GB][Ac][GB] [EG][FA][GB] | [Ac] [GB]4 [Ge]/[Ge]/ | %7
w: way, * And has|left us the care of the|vine- yard, T- o|
w: wait; * If we’re|fill- ing the place He as-|signs us, Be its|
w: ours; * An- d|then, hav- ing found it, to|do it Wi- th|
w: one; * Shall we|then count our toil or our|sor- row, If His|
 [Fd][Fd][Ec] [DB]2 [C=A] | [DB]3- [DB]2 ||"^Refrain" [GB]/[GB]/ | [Ge]2 [Ge] [Bd][Ac][GB] | %11
w: work for Him day by|day. *|||
w: s- er- vice small or|great. *|There’s a|work for me and a|
w: all of our God- giv’n|powers. *|||
w: se- n- tence be, “Well|done”? *|||
 [Ac]2 [Ac] [GB]3 | [Ac][Ad][Ae] [GB][EG]E | [EG]2 [DF] [EG][FA][GB] | [Ge]2 [Ge] [Bd][Ac][GB] | %15
w: ||||
w: work for you,|Some- thing for each of us|now to do, Yes, a|work for me and a|
w: ||||
w: ||||
 [Ac]2 [Ac] [GB]3 | [Ac][Ad][Ae] [GB][EG]E | [EG]2 [DF] E2 |] %18
w: |||
w: work for you,|Some- thing for each of us|now to do.|
w: |||
w: |||
V:2
 x | x6 | x6 | x6 | x6 | x6 | x6 | x6 | x5 || x | x6 | x6 | x5 E | x6 | x6 | x6 | x5 E | x3 E2 |] %18
V:3
 z | [E,,E,]6 | [E,,E,]6 | [B,,B,]3 [B,,B,]3 | [E,,E,]3- [E,,E,]2 z | [E,,E,]6 | [E,,E,]6 | %7
 [F,,F,]3 [F,,F,]3 | [B,,B,]3- [B,,B,]2 || [E,C]/[E,C]/ | [E,B,]2 [E,B,] [E,B,][E,C][E,D] | %11
 [A,E]2 [A,E] [E,E]3 | [A,,E][A,,D][A,,C] [E,B,][E,B,][E,G,] | %13
 [B,,B,]2 [B,,B,] [E,B,][E,B,][E,B,] | [E,B,]2 [E,B,] [E,B,][E,C][E,D] | [A,E]2 [A,E] [E,E]3 | %16
 [A,,E][A,,D][A,,C] [E,B,][E,B,][E,G,] | [B,,B,]2 [B,,A,] [E,G,]2 |] %18

